assets/images/icons/services_event.svg

<svg width="86" height="86" viewBox="0 0 86 86" fill="none" xmlns="http://www.w3.org/2000/svg">
<path d="M20.6098 3.91699L20.8954 7.59047L18.0903 9.98402L21.6848 10.8524L23.0958 14.2538L25.0274 11.1161L28.6891 10.8222L26.304 8.01543L27.1606 4.43434L23.7508 5.83688L20.6098 3.91699ZM77.9376 5.37496C77.2248 5.37496 76.5412 5.65811 76.0372 6.16211C75.5332 6.66612 75.2501 7.34969 75.2501 8.06246C75.2501 8.77523 75.5332 9.45881 76.0372 9.96281C76.5412 10.4668 77.2248 10.75 77.9376 10.75C78.6503 10.75 79.3339 10.4668 79.8379 9.96281C80.3419 9.45881 80.6251 8.77523 80.6251 8.06246C80.6251 7.34969 80.3419 6.66612 79.8379 6.16211C79.3339 5.65811 78.6503 5.37496 77.9376 5.37496ZM40.279 7.13863C39.5662 7.13863 38.8826 7.42178 38.3786 7.92578C37.8746 8.42979 37.5915 9.11336 37.5915 9.82613C37.5915 10.5389 37.8746 11.2225 38.3786 11.7265C38.8826 12.2305 39.5662 12.5136 40.279 12.5136C40.9917 12.5136 41.6753 12.2305 42.1793 11.7265C42.6833 11.2225 42.9665 10.5389 42.9665 9.82613C42.9665 9.11336 42.6833 8.42979 42.1793 7.92578C41.6753 7.42178 40.9917 7.13863 40.279 7.13863ZM71.1684 8.28754C69.6231 8.5798 68.1954 9.49355 66.818 10.6861C65.5415 11.783 64.3489 13.1486 63.3411 14.625C60.1833 15.1306 57.0255 16.4172 54.909 18.1742C52.2047 20.3914 49.8028 24.1875 48.4926 28.1011C47.2497 28.6218 46.0739 29.2433 45.1165 29.9152C42.513 31.7461 41.1692 35.2566 40.1782 38.3136C39.1872 41.3875 38.7001 44.075 38.7001 44.075L41.6899 44.6125C41.6899 44.6125 42.1434 42.0929 43.0504 39.2543C43.9743 36.4156 45.5364 33.325 46.8633 32.4011C47.0817 32.25 47.3672 32.082 47.6192 31.9308C47.5184 32.8882 47.5184 33.8457 47.6696 34.7527C47.9719 36.6675 49.0133 38.4984 50.861 39.4894C52.1712 40.1949 53.6493 40.0269 54.8922 39.523C56.1352 39.0023 57.2438 38.1457 58.2012 37.1379C59.1587 36.13 59.9481 34.9375 60.4184 33.6777C60.8887 32.4179 61.0567 30.9902 60.452 29.6632H60.4352C59.7801 28.2523 58.5204 27.3453 57.1766 26.9589C55.8329 26.5726 54.3883 26.5894 52.9438 26.8078C52.6919 26.8414 52.4567 26.9254 52.2047 26.9757C53.4477 24.3218 55.2282 21.8191 56.8239 20.4921C57.8653 19.6355 59.6122 18.8125 61.4766 18.2078C61.2415 18.8461 61.0567 19.4843 60.9727 20.1394C60.704 21.9031 61.0903 23.8179 62.5012 25.1281C63.5258 26.0687 64.9032 26.2199 66.1126 26.0183C67.3051 25.8168 68.4641 25.2793 69.5055 24.5906C70.5469 23.8851 71.4708 23.0117 72.1258 21.9871C72.7809 20.9625 73.2176 19.6523 72.7977 18.3421V18.3254C72.2434 16.6339 70.8661 15.4716 69.3376 14.9206C68.6825 14.6855 67.9938 14.5528 67.2883 14.4738C67.7755 13.9262 68.2794 13.4139 68.7833 12.9755C69.9255 11.9946 71.0844 11.3798 71.7395 11.2572L71.1684 8.28754ZM29.361 14.1748L26.8079 15.7806L32.6028 25.0609L23.1294 25.548L27.5805 35.2566L30.3352 33.98L27.7317 28.3363L37.9106 27.8156L29.361 14.1748ZM65.7094 17.4183C66.734 17.4015 67.6411 17.5191 68.313 17.7711C69.22 18.0902 69.6735 18.4933 69.9087 19.2492C69.9758 19.4339 69.9422 19.8035 69.5895 20.3578C69.22 20.9289 68.5649 21.5671 67.8258 22.0711C67.07 22.575 66.2301 22.9277 65.6087 23.0285C64.9704 23.1461 64.6848 23.0285 64.5504 22.9109C63.9626 22.3734 63.7946 21.7015 63.9626 20.5761C64.0969 19.6691 64.5169 18.5773 65.1383 17.4519C65.3399 17.4519 65.5247 17.4183 65.7094 17.4183ZM15.9554 20.6601C15.2426 20.6601 14.5591 20.9433 14.0551 21.4473C13.5511 21.9513 13.2679 22.6348 13.2679 23.3476C13.2679 24.0604 13.5511 24.744 14.0551 25.248C14.5591 25.752 15.2426 26.0351 15.9554 26.0351C16.3085 26.0353 16.6581 25.966 16.9844 25.831C17.3106 25.6961 17.6071 25.4981 17.8568 25.2486C18.1066 24.999 18.3047 24.7026 18.4399 24.3765C18.575 24.0503 18.6446 23.7007 18.6446 23.3476C18.6446 22.9945 18.575 22.6449 18.4399 22.3188C18.3047 21.9926 18.1066 21.6963 17.8568 21.4467C17.6071 21.1971 17.3106 20.9992 16.9844 20.8642C16.6581 20.7292 16.3085 20.6599 15.9554 20.6601ZM75.7708 26.9086L73.352 29.6968L69.6903 29.3945L71.6051 32.5523L70.1774 35.9453L73.7719 35.1054L76.5602 37.5074L76.8794 33.8289L80.0204 31.914L76.6274 30.4863L75.7708 26.9086ZM55.0266 29.68C55.5137 29.6968 55.9672 29.764 56.32 29.8648C57.0422 30.0664 57.4286 30.3687 57.6973 30.9398C57.8485 31.2589 57.8653 31.8468 57.5797 32.6195C57.2942 33.4089 56.7063 34.316 56.0008 35.0718C55.2954 35.8277 54.4387 36.4324 53.7333 36.7179C53.0278 37.0035 52.5911 36.9867 52.3055 36.8355H52.2887C51.3145 36.298 50.8442 35.5254 50.6594 34.2824C50.4915 33.2242 50.609 31.8804 50.9618 30.4359C51.7848 30.1504 52.6079 29.9152 53.3973 29.7976C53.9852 29.7136 54.5227 29.68 55.0266 29.68ZM21.0297 38.3976C19.8204 38.364 19.0645 38.6496 18.5942 39.1199C18.1239 39.5902 17.8383 40.3461 17.8719 41.5554C17.9055 42.7816 18.3087 44.3941 19.0813 46.1914C20.6266 49.8027 23.6669 54.1531 27.7485 58.2515C31.8301 62.3332 36.1973 65.3566 39.8087 66.9019C41.5891 67.6746 43.2016 68.0777 44.4278 68.1113C45.654 68.1617 46.393 67.8593 46.8633 67.389C47.3337 66.9187 47.636 66.1796 47.5856 64.9535C47.552 63.7273 47.1489 62.1148 46.3762 60.3175C44.8309 56.723 41.8075 52.3558 37.7258 48.2742C33.6442 44.1757 29.277 41.1523 25.6657 39.607C23.8684 38.8343 22.2559 38.4312 21.0297 38.3976ZM59.9985 43.655L54.4555 52.7253L49.5676 48.039L47.4848 50.2226L55.0602 57.4957L60.7376 48.2238L67.2379 53.6492L82.2376 47.2328L81.0618 44.4445L67.7419 50.1554L59.9985 43.655ZM15.6934 45.7882L12.7304 55.5136C19.686 63.7609 27.7989 68.3968 36.6004 71.4203L40.2286 70.3117C39.7079 70.1269 39.1536 69.9086 38.5993 69.6734C34.5008 67.9265 29.9153 64.7015 25.6153 60.3847C21.2985 56.0679 18.0735 51.4824 16.3199 47.3839C16.0831 46.8464 15.8748 46.3089 15.6934 45.7882ZM11.6924 58.9234L9.33912 66.65C14.1917 71.1851 19.2493 73.2343 24.5571 75.082L31.8469 72.8648C24.5907 69.9086 17.7376 65.5918 11.6924 58.9234ZM61.8126 59.125C61.0998 59.125 60.4162 59.4081 59.9122 59.9121C59.4082 60.4161 59.1251 61.0997 59.1251 61.8125C59.1251 62.5252 59.4082 63.2088 59.9122 63.7128C60.4162 64.2168 61.0998 64.5 61.8126 64.5C62.5253 64.5 63.2089 64.2168 63.7129 63.7128C64.2169 63.2088 64.5001 62.5252 64.5001 61.8125C64.5001 61.0997 64.2169 60.4161 63.7129 59.9121C63.2089 59.4081 62.5253 59.125 61.8126 59.125ZM8.36658 69.8582L4.9585 81.0449L19.7868 76.5265C15.9621 74.998 12.0972 73.0496 8.36658 69.8582Z" fill="#390303" stroke="#390303" stroke-width="0.167969"/>
</svg>

<svg width="86" height="86" fill="none" xmlns="http://www.w3.org/2000/svg"><path d="m20.61 3.917.285 3.673-2.805 2.394 3.595.868 1.41 3.402 1.932-3.138 3.662-.294-2.385-2.807.857-3.58-3.41 1.402-3.141-1.92Zm57.328 1.458a2.688 2.688 0 1 0 0 5.375 2.688 2.688 0 0 0 0-5.375ZM40.279 7.139a2.688 2.688 0 1 0 0 5.375 2.688 2.688 0 0 0 0-5.375Zm30.89 1.149c-1.546.292-2.974 1.206-4.351 2.398-1.276 1.097-2.47 2.463-3.477 3.939-3.158.506-6.316 1.792-8.432 3.55-2.704 2.216-5.106 6.012-6.416 9.926-1.243.52-2.42 1.142-3.377 1.814-2.603 1.831-3.947 5.342-4.938 8.399a50.268 50.268 0 0 0-1.478 5.761l2.99.537s.453-2.52 1.36-5.358c.924-2.838 2.486-5.929 3.813-6.853.219-.151.504-.319.756-.47-.1.957-.1 1.915.05 2.822.303 1.914 1.344 3.745 3.192 4.736 1.31.706 2.788.538 4.031.034 1.243-.52 2.352-1.377 3.31-2.385.957-1.008 1.746-2.2 2.216-3.46.47-1.26.639-2.688.034-4.015h-.017c-.655-1.41-1.915-2.318-3.258-2.704-1.344-.386-2.789-.37-4.233-.151-.252.033-.487.117-.74.168 1.244-2.654 3.024-5.157 4.62-6.484 1.041-.857 2.788-1.68 4.653-2.284-.235.638-.42 1.276-.504 1.931-.269 1.764.117 3.679 1.528 4.99 1.025.94 2.402 1.09 3.612.89 1.192-.202 2.351-.74 3.392-1.428 1.042-.706 1.966-1.58 2.62-2.604.656-1.024 1.093-2.335.673-3.645v-.017c-.555-1.691-1.932-2.853-3.46-3.404-.655-.236-1.344-.368-2.05-.447.487-.548.991-1.06 1.495-1.498 1.142-.981 2.301-1.596 2.957-1.719l-.572-2.97ZM29.36 14.175l-2.553 1.606 5.795 9.28-9.474.487 4.451 9.709 2.755-1.277-2.603-5.644 10.179-.52-8.55-13.641Zm36.348 3.243c1.025-.017 1.932.101 2.604.353.907.32 1.36.722 1.596 1.478.067.185.033.555-.32 1.109-.369.57-1.024 1.21-1.763 1.713-.756.504-1.596.857-2.217.957-.639.118-.924 0-1.059-.117-.587-.538-.755-1.21-.587-2.335.134-.907.554-1.999 1.175-3.124.202 0 .387-.034.571-.034ZM15.955 20.66a2.687 2.687 0 1 0 0 5.375 2.687 2.687 0 0 0 0-5.375Zm59.816 6.249-2.419 2.788-3.662-.302 1.915 3.157-1.428 3.393 3.595-.84 2.788 2.402.32-3.678 3.14-1.915-3.393-1.428-.856-3.577ZM55.027 29.68c.487.017.94.084 1.293.185.722.201 1.109.504 1.377 1.075.151.319.168.907-.117 1.68-.286.789-.874 1.696-1.58 2.452-.705.756-1.561 1.36-2.267 1.646-.705.285-1.142.269-1.427.117h-.017c-.974-.537-1.445-1.31-1.63-2.553-.167-1.058-.05-2.402.303-3.846.823-.286 1.646-.52 2.435-.638a11.438 11.438 0 0 1 1.63-.118ZM21.03 38.398c-1.21-.034-1.966.252-2.436.722s-.756 1.226-.722 2.435c.034 1.227.437 2.84 1.21 4.636 1.545 3.612 4.585 7.962 8.666 12.06 4.082 4.082 8.45 7.106 12.06 8.65 1.781.774 3.394 1.177 4.62 1.21 1.226.05 1.965-.252 2.435-.722s.773-1.21.723-2.435c-.034-1.227-.437-2.84-1.21-4.636-1.545-3.595-4.569-7.962-8.65-12.044-4.082-4.098-8.449-7.122-12.06-8.667-1.798-.773-3.41-1.176-4.636-1.21Zm38.968 5.257-5.542 9.07-4.888-4.686-2.083 2.184 7.575 7.273 5.678-9.272 6.5 5.425 15-6.416-1.176-2.788-13.32 5.71-7.744-6.5Zm-44.305 2.133-2.963 9.726C19.686 63.76 27.8 68.397 36.6 71.42l3.629-1.108a29.432 29.432 0 0 1-1.63-.639c-4.098-1.746-8.684-4.972-12.984-9.288-4.316-4.317-7.541-8.903-9.295-13.001a21.567 21.567 0 0 1-.627-1.596Zm-4 13.135L9.338 66.65c4.853 4.535 9.91 6.584 15.218 8.432l7.29-2.217c-7.256-2.956-14.11-7.273-20.155-13.942Zm50.12.202a2.688 2.688 0 1 0 0 5.375 2.688 2.688 0 0 0 0-5.375ZM8.367 69.858 4.958 81.045l14.829-4.519c-3.825-1.528-7.69-3.476-11.42-6.668Z" fill="#390303" stroke="#390303" stroke-width=".168"/></svg>
